X: 25245
T: Mammy's Plaidie
R: strathspey
M: 4/4
K: Amajor
A,>C E>A c>B A<c|C>E A>c d<B B>c|A2 A>B c>B A>E|F>E A>E C<A, A,>B,|
A,>C E>A c>B A<c|C>E A>c d<B B>c|A>G A>B c>B A>E|F>E A>E C<A, A,>B,||
A,>a f>a e<a c>e|(3Ace a>e f<B B>d|c>a f>a e<a c>e|(3EFG A>B c<A A>B|
A>a f>a e<a c>e|(3Ace a>e f<B B>d|(3cea (3Beg (3Adf (3GBe|(3FAd (3EGe c<A A2||

